src/standard/data-connections.svg

<?xml version="1.0" encoding="UTF-8"?><svg id="uuid-e52caed9-db99-458c-9f81-c2d3c502bdc6" xmlns="http://www.w3.org/2000/svg" viewBox="0 0 36 36"><title>Data connections icon</title>
<desc>neural network, AI, ML, artificial intelligence, machine learning, nodes, points, connect, net, computer, generate, generative</desc>
<metadata><?xpacket begin="﻿" id="W5M0MpCehiHzreSzNTczkc9d"?>
<x:xmpmeta xmlns:x="adobe:ns:meta/" x:xmptk="Adobe XMP Core 8.0-c001 1.000000, 0000/00/00-00:00:00        ">
   <rdf:RDF xmlns:rdf="http://www.w3.org/1999/02/22-rdf-syntax-ns#">
      <rdf:Description rdf:about=""
            xmlns:xmp="http://ns.adobe.com/xap/1.0/"
            xmlns:tiff="http://ns.adobe.com/tiff/1.0/"
            xmlns:dc="http://purl.org/dc/elements/1.1/">
         <xmp:rhcc-effective-on>2024-08-09T21:47:56.177Z</xmp:rhcc-effective-on>
         <xmp:rhcc-rights-restricted>no</xmp:rhcc-rights-restricted>
         <xmp:brand-content-subtype>Icon</xmp:brand-content-subtype>
         <xmp:rhcc-metadata-complete-moderator>pending</xmp:rhcc-metadata-complete-moderator>
         <xmp:rhcc-translation-id>TRA000b7f54-893f-460b-907a-364b3b7518f7</xmp:rhcc-translation-id>
         <xmp:brand-content-type>Icon</xmp:brand-content-type>
         <xmp:CreateDate>2024-08-09T21:47:56.177Z</xmp:CreateDate>
         <xmp:rhcc-derivative-id>DER000b7f54-893f-460b-907a-364b3b7518f7</xmp:rhcc-derivative-id>
         <xmp:rhcc-effective-on-set-on-upload>true</xmp:rhcc-effective-on-set-on-upload>
         <xmp:rhcc-uploaded-by>ryawilli@redhat.com</xmp:rhcc-uploaded-by>
         <xmp:brand-logo-color>Black</xmp:brand-logo-color>
         <xmp:rhcc-metadata-complete-uploader>pending</xmp:rhcc-metadata-complete-uploader>
         <xmp:rhcc-file-last-modified>2024-08-09T21:48:08.525Z</xmp:rhcc-file-last-modified>
         <xmp:rhcc-audience>rhcc-audience:internal</xmp:rhcc-audience>
         <xmp:rhcc-notify-portal-subscribers-on-change>yes</xmp:rhcc-notify-portal-subscribers-on-change>
         <tiff:ImageLength>36</tiff:ImageLength>
         <tiff:ImageWidth>36</tiff:ImageWidth>
         <dc:format>image/svg+xml</dc:format>
         <dc:modified>2024-08-09T21:48:34.680Z</dc:modified>
         <dc:description>
            <rdf:Alt>
               <rdf:li xml:lang="x-default">neural network, AI, ML, artificial intelligence, machine learning, nodes, points, connect, net, computer, generate, generative</rdf:li>
            </rdf:Alt>
         </dc:description>
         <dc:title>
            <rdf:Alt>
               <rdf:li xml:lang="x-default">Data connections icon</rdf:li>
            </rdf:Alt>
         </dc:title>
      </rdf:Description>
   </rdf:RDF>
</x:xmpmeta>
                                                                                                    
                                                                                                    
                                                                                                    
                                                                                                    
                                                                                                    
                                                                                                    
                                                                                                    
                                                                                                    
                                                                                                    
                                                                                                    
                                                                                                    
                                                                                                    
                                                                                                    
                                                                                                    
            
<?xpacket end="w"?></metadata>
<defs><style>.uuid-0475121f-e205-418f-adbf-fdd8364333a8{fill:#000;stroke-width:0px;}</style></defs><path class="uuid-0475121f-e205-418f-adbf-fdd8364333a8" d="M27,24.375c-.4968,0-.9568.1466-1.3533.3874l-4.6847-4.6847c.4148-.5894.663-1.3037.663-2.0777,0-.0441-.0114-.0851-.013-.1288l2.061-.4381c.5568,1.2875,1.8372,2.1919,3.327,2.1919,1.999,0,3.625-1.626,3.625-3.625s-1.626-3.625-3.625-3.625-3.625,1.626-3.625,3.625c0,.0733.0173.1418.0217.214l-2.0392.4334c-.3837-.9488-1.1584-1.6893-2.1227-2.0415l.848-3.9893c1.4082-.0449,2.5422-1.1977,2.5422-2.6166,0-1.4473-1.1777-2.625-2.625-2.625s-2.625,1.1777-2.625,2.625c0,1.0374.61,1.9279,1.4857,2.3539l-.8549,4.0217c-.002,0-.0038-.0006-.0059-.0006-.774,0-1.4883.2482-2.0777.663l-3.9603-3.9603c.4148-.5894.663-1.3037.663-2.0777,0-1.999-1.626-3.625-3.625-3.625s-3.625,1.626-3.625,3.625,1.626,3.625,3.625,3.625c.774,0,1.4883-.2482,2.0777-.663l3.9603,3.9603c-.4148.5894-.663,1.3037-.663,2.0777,0,.0441.0115.0851.0131.1289l-3.0765.6539c-.4406-.8327-1.3058-1.4078-2.3116-1.4078-1.4473,0-2.625,1.1777-2.625,2.625s1.1777,2.625,2.625,2.625,2.625-1.1777,2.625-2.625c0-.002-.0006-.0038-.0006-.0058l3.0181-.6415c.3526.8719,1.0331,1.5739,1.8898,1.9556l-.4413,2.076c-.0309-.0008-.0598-.0092-.091-.0092-1.999,0-3.625,1.626-3.625,3.625s1.626,3.625,3.625,3.625,3.625-1.626,3.625-3.625c0-1.5336-.9604-2.84-2.3086-3.3688l.4318-2.0317c.0847.0059.1656.0255.2518.0255.774,0,1.4883-.2482,2.0777-.663l4.6847,4.6847c-.2408.3965-.3874.8566-.3874,1.3533,0,1.4473,1.1777,2.625,2.625,2.625s2.625-1.1777,2.625-2.625-1.1777-2.625-2.625-2.625ZM27,13.625c1.3096,0,2.375,1.0654,2.375,2.375s-1.0654,2.375-2.375,2.375-2.375-1.0654-2.375-2.375,1.0654-2.375,2.375-2.375ZM18.625,8c0-.7583.6167-1.375,1.375-1.375s1.375.6167,1.375,1.375c0,.7578-.6167,1.375-1.375,1.375s-1.375-.6172-1.375-1.375ZM9,11.375c-1.3096,0-2.375-1.0654-2.375-2.375s1.0654-2.375,2.375-2.375,2.375,1.0654,2.375,2.375-1.0654,2.375-2.375,2.375ZM9,21.375c-.7583,0-1.375-.6172-1.375-1.375s.6167-1.375,1.375-1.375,1.375.6172,1.375,1.375-.6167,1.375-1.375,1.375ZM18.375,27c0,1.3096-1.0654,2.375-2.375,2.375s-2.375-1.0654-2.375-2.375,1.0654-2.375,2.375-2.375,2.375,1.0654,2.375,2.375ZM15.625,18c0-1.3096,1.0654-2.375,2.375-2.375s2.375,1.0654,2.375,2.375-1.0654,2.375-2.375,2.375-2.375-1.0654-2.375-2.375ZM27,28.375c-.7583,0-1.375-.6172-1.375-1.375s.6167-1.375,1.375-1.375,1.375.6172,1.375,1.375-.6167,1.375-1.375,1.375Z"/></svg>

<svg xmlns="http://www.w3.org/2000/svg" viewBox="0 0 36 36">
  <path d="M27 24.375c-.497 0-.957.147-1.353.387l-4.685-4.684c.415-.59.663-1.304.663-2.078 0-.044-.011-.085-.013-.129l2.061-.438A3.628 3.628 0 0 0 27 19.625c1.999 0 3.625-1.626 3.625-3.625S28.999 12.375 27 12.375 23.375 14.001 23.375 16c0 .073.017.142.022.214l-2.04.433a3.63 3.63 0 0 0-2.122-2.041l.848-3.99A2.624 2.624 0 0 0 22.625 8c0-1.447-1.178-2.625-2.625-2.625S17.375 6.553 17.375 8a2.62 2.62 0 0 0 1.486 2.354l-.855 4.022-.006-.001c-.774 0-1.488.248-2.078.663l-3.96-3.96c.415-.59.663-1.304.663-2.078 0-1.999-1.626-3.625-3.625-3.625S5.375 7.001 5.375 9 7 12.625 9 12.625c.774 0 1.488-.248 2.078-.663l3.96 3.96A3.597 3.597 0 0 0 14.375 18c0 .044.011.085.013.129l-3.076.654A2.617 2.617 0 0 0 9 17.375c-1.447 0-2.625 1.178-2.625 2.625S7.553 22.625 9 22.625s2.625-1.178 2.625-2.625v-.006l3.017-.641a3.638 3.638 0 0 0 1.89 1.955l-.441 2.076c-.031 0-.06-.009-.091-.009-2 0-3.625 1.626-3.625 3.625S14 30.625 16 30.625 19.625 29 19.625 27c0-1.534-.96-2.84-2.309-3.369l.432-2.031c.085.005.166.025.252.025.774 0 1.488-.248 2.078-.663l4.684 4.685c-.24.396-.387.856-.387 1.353 0 1.447 1.178 2.625 2.625 2.625s2.625-1.178 2.625-2.625-1.178-2.625-2.625-2.625Zm0-10.75c1.31 0 2.375 1.065 2.375 2.375S28.31 18.375 27 18.375 24.625 17.31 24.625 16 25.69 13.625 27 13.625ZM18.625 8c0-.758.617-1.375 1.375-1.375s1.375.617 1.375 1.375S20.758 9.375 20 9.375 18.625 8.758 18.625 8ZM9 11.375c-1.31 0-2.375-1.065-2.375-2.375S7.69 6.625 9 6.625 11.375 7.69 11.375 9 10.31 11.375 9 11.375Zm0 10c-.758 0-1.375-.617-1.375-1.375S8.242 18.625 9 18.625s1.375.617 1.375 1.375S9.758 21.375 9 21.375ZM18.375 27c0 1.31-1.065 2.375-2.375 2.375S13.625 28.31 13.625 27 14.69 24.625 16 24.625 18.375 25.69 18.375 27Zm-2.75-9c0-1.31 1.065-2.375 2.375-2.375S20.375 16.69 20.375 18 19.31 20.375 18 20.375 15.625 19.31 15.625 18ZM27 28.375c-.758 0-1.375-.617-1.375-1.375s.617-1.375 1.375-1.375 1.375.617 1.375 1.375-.617 1.375-1.375 1.375Z"/>
</svg>
